Origami/24x24/apps/auryo.svg

<svg width="24" height="24" version="1.1" viewBox="0 0 24 24" xmlns="http://www.w3.org/2000/svg">
 <circle cx="12" cy="12.5" r="10" style="opacity:.2"/>
 <circle cx="12" cy="12" r="10" style="fill:#4f4f4f"/>
 <path d="M 12,2 A 10,10 0 0 0 2,12 10,10 0 0 0 2.01075,12.291 10,10 0 0 1 12,2.5 10,10 0 0 1 21.9895,12.209 10,10 0 0 0 22,12 10,10 0 0 0 12,2 Z" style="fill:#ffffff;opacity:.1"/>
 <path d="m12 6.5c-2.4852815 0-4.5 2.0147185-4.5 4.5v1.566406c-0.881993 0.227729-1.49868 1.022677-1.5 1.933594 0 1.10457 0.8954305 2 2 2 0.351306-8e-4 0.6962095-0.09408 1-0.270508v0.270508h1v-2-2h-1v0.270508c-0.156621-0.090666-0.3248225-0.159655-0.5-0.205079v-1.565429c0-1.9329965 1.567004-3.5 3.5-3.5 1.932997 0 3.5 1.5670035 3.5 3.5v1.566406c-0.881993 0.227729-1.49868 1.022677-1.5 1.933594 0 1.10457 0.895431 2 2 2s2-0.89543 2-2c-9e-4 -0.911281-0.617656-1.70675-1.5-1.93457v-1.56543c0-2.4852815-2.014719-4.5-4.5-4.5zm-4 7c0.5522845 0 1 0.447715 1 1s-0.4477155 1-1 1-1-0.447715-1-1 0.4477155-1 1-1zm8 0c0.552284 0 1 0.447715 1 1s-0.447716 1-1 1c-0.552285 0-1-0.447715-1-1s0.447715-1 1-1z" style="opacity:.2"/>
 <path d="m12 6c-2.4852815 0-4.5 2.0147185-4.5 4.5v1.566406c-0.881993 0.227729-1.49868 1.022677-1.5 1.933594 0 1.10457 0.8954305 2 2 2 0.351306-8e-4 0.6962095-0.09408 1-0.270508v0.270508h1v-2-2h-1v0.270508c-0.156621-0.090666-0.3248225-0.159655-0.5-0.205079v-1.565429c0-1.9329965 1.567004-3.5 3.5-3.5 1.932997 0 3.5 1.5670035 3.5 3.5v1.566406c-0.881993 0.227729-1.49868 1.022677-1.5 1.933594 0 1.10457 0.895431 2 2 2s2-0.89543 2-2c-9e-4 -0.911281-0.617656-1.70675-1.5-1.93457v-1.56543c0-2.4852815-2.014719-4.5-4.5-4.5zm-4 7c0.5522845 0 1 0.447715 1 1s-0.4477155 1-1 1-1-0.447715-1-1 0.4477155-1 1-1zm8 0c0.552284 0 1 0.447715 1 1s-0.447716 1-1 1c-0.552285 0-1-0.447715-1-1s0.447715-1 1-1z" style="fill:#2993e4"/>
</svg>

<svg xmlns="http://www.w3.org/2000/svg" width="24" height="24" version="1.1" viewBox="0 0 24 24">
 <circle style="opacity:0.2" cx="12" cy="12.5" r="10"/>
 <circle style="fill:#4f4f4f" cx="12" cy="12" r="10"/>
 <path style="opacity:0.1;fill:#ffffff" d="M 12,2 A 10,10 0 0 0 2,12 10,10 0 0 0 2.01075,12.291 10,10 0 0 1 12,2.5 10,10 0 0 1 21.9895,12.209 10,10 0 0 0 22,12 10,10 0 0 0 12,2 Z"/>
 <path d="M 12,6.5 C 9.5147185,6.5 7.5,8.5147185 7.5,11 l 0,1.566406 C 6.618007,12.794135 6.00132,13.589083 6,14.5 c 0,1.10457 0.8954305,2 2,2 0.351306,-8e-4 0.6962095,-0.09408 1,-0.270508 L 9,16.5 l 1,0 0,-2 0,-2 -1,0 0,0.270508 C 8.843379,12.679842 8.6751775,12.610853 8.5,12.565429 L 8.5,11 c 0,-1.9329965 1.567004,-3.5 3.5,-3.5 1.932997,0 3.5,1.5670035 3.5,3.5 l 0,1.566406 C 14.618007,12.794135 14.00132,13.589083 14,14.5 c 0,1.10457 0.895431,2 2,2 1.104569,0 2,-0.89543 2,-2 -9e-4,-0.911281 -0.617656,-1.70675 -1.5,-1.93457 L 16.5,11 C 16.5,8.5147185 14.485281,6.5 12,6.5 Z m -4,7 c 0.5522845,0 1,0.447715 1,1 0,0.552285 -0.4477155,1 -1,1 -0.5522845,0 -1,-0.447715 -1,-1 0,-0.552285 0.4477155,-1 1,-1 z m 8,0 c 0.552284,0 1,0.447715 1,1 0,0.552285 -0.447716,1 -1,1 -0.552285,0 -1,-0.447715 -1,-1 0,-0.552285 0.447715,-1 1,-1 z" style="opacity:0.2"/>
 <path style="fill:#2993e4" d="M 12,6 C 9.5147185,6 7.5,8.0147185 7.5,10.5 l 0,1.566406 C 6.618007,12.294135 6.00132,13.089083 6,14 c 0,1.10457 0.8954305,2 2,2 0.351306,-8e-4 0.6962095,-0.09408 1,-0.270508 L 9,16 l 1,0 0,-2 0,-2 -1,0 0,0.270508 C 8.843379,12.179842 8.6751775,12.110853 8.5,12.065429 L 8.5,10.5 C 8.5,8.5670035 10.067004,7 12,7 c 1.932997,0 3.5,1.5670035 3.5,3.5 l 0,1.566406 C 14.618007,12.294135 14.00132,13.089083 14,14 c 0,1.10457 0.895431,2 2,2 1.104569,0 2,-0.89543 2,-2 -9e-4,-0.911281 -0.617656,-1.70675 -1.5,-1.93457 L 16.5,10.5 C 16.5,8.0147185 14.485281,6 12,6 Z m -4,7 c 0.5522845,0 1,0.447715 1,1 0,0.552285 -0.4477155,1 -1,1 -0.5522845,0 -1,-0.447715 -1,-1 0,-0.552285 0.4477155,-1 1,-1 z m 8,0 c 0.552284,0 1,0.447715 1,1 0,0.552285 -0.447716,1 -1,1 -0.552285,0 -1,-0.447715 -1,-1 0,-0.552285 0.447715,-1 1,-1 z"/>
</svg>
